X:1
T:Santy Anna
M:4/4
L:1/4
K:C
 z2 z D| D3/2 E/2 F G| AG/2-F/2 G c| A2 D3/2 E/2| F G2 z/2 E/2| G E3/4 F/4- G E3/4 F/4-|\
 G G C D3/4- E/4| F3/2 D/2 E3/2 C/2| A, D D z|

